X: 42779
T: White Strand
R: reel
M: 4/4
K: Gmajor
M:7/8
|:G2 GG ABd|[M:3/4]B2 AG AB|[M:7/8]G2 GG ABd|e z B AG AB|
DE EE EDE|G2 DE GAB|DE EE EDE|G2 Dc BAG:|
e2 ee edB|A2 d B2 AG|EG GG GED|GE GA Bgf|
e2 ee gab|a2 b g2 fd|[M:4/4]e2 g d2 B A2-|A2 AG ABGF||
M:7/8
E2 EE EDE|F2 G2 G2 F|G2 D2 d2 B|A2 A2 ABd|
e2 ee gab|a2 b g2 fd|[M:4/4]e2 g d2 B A2-|A2 AG Ac cB||[M:7/8]G2|

